X:1
T:Jüngst, irr.
T:Jüngst, irr.
T:Germany mleody, arr by Hugo Jüngst  (1853-1923)
T:Public Domain Courtesy of the Cyber Hymnal™
C:Germany mleody, arr by Hugo Jüngst  (1853-1923)
Z:Public Domain
Z:Courtesy of the Cyber Hymnal™
%%score ( 1 2 ) ( 3 4 )
L:1/8
M:2/4
K:C
V:1 treble 
V:2 treble 
V:3 bass 
V:4 bass 
V:1
 c2 BA | G3 G | [FA]2 [FB]2 | [Ec]4 | [Ac]2 [GB][FA] | [EG]3 [EG] | A2 B2 | [Ec]3 [Ec] | %8
 [EB]3 [DB] | [CA]4 | [EB]3 [DB] | [CA]4 | [Ac]2 [Bd]2 | [Ge]4 | [Ac]2 [Bd]2 | [Ge]4 | %16
 [Ge]2 [Fd][Ec] | [DB]2 A2 | [FB]2 ^G2 | [CA]4 | [Ee]2 [Fd][Ec] | [DB]2 A2 | [FB]2 ^G2 | [CA]4 |] %24
V:2
 x4 | x4 | x4 | x4 | x4 | x4 | FE DF | x4 | x4 | x4 | x4 | x4 | x4 | x4 | x4 | x4 | x4 | x2 CF | %18
 x2 ED | x4 | x4 | x2 CF | x2 ED | x4 |] %24
V:3
 C2 B,A, | G,3 [E,C] | C2 [D,G,]2 | [C,C]4 | [A,E]2 [E,E][F,C] | [C,C]3 [C,C] | [F,C]2 G,2 | %7
 [C,G,]3 [A,,A,] | [E,^G,]3 [E,G,] | [A,,A,]4 | [E,^G,]3 [E,G,] | [A,,A,]4 | [A,E]2 [G,G]2 | %13
 [CE]4 | [A,E]2 [G,G]2 | [CE]4 | [C,C]2 [B,,G,][C,G,] | [E,^G,]2 [F,A,]2 | [D,D]2 [E,B,]2 | %19
 [A,,A,]4 | [C,G,]2 [B,,^G,][A,,A,] | [E,^G,]2 [F,A,]2 | [D,D]2 [E,B,]2 | [A,,A,]4 |] %24
V:4
 x4 | x4 | F,E, x2 | x4 | x4 | x4 | x4 | x4 | x4 | x4 | x4 | x4 | x4 | x4 | x4 | x4 | x4 | x4 | %18
 x4 | x4 | x4 | x4 | x4 | x4 |] %24

